readthedocs/source/_static/jupedsim.svg

<?xml version="1.0" encoding="UTF-8" standalone="no"?>
<svg
   version="1.1"
   viewBox="0 0 710 171.66001"
   id="svg471"
   sodipodi:docname="jupedsim.svg"
   inkscape:version="1.2.2 (b0a8486541, 2022-12-01)"
   width="710"
   height="171.66"
   xmlns:inkscape="http://www.inkscape.org/namespaces/inkscape"
   xmlns:sodipodi="http://sodipodi.sourceforge.net/DTD/sodipodi-0.dtd"
   xmlns="http://www.w3.org/2000/svg"
   xmlns:svg="http://www.w3.org/2000/svg">
  <defs
     id="defs475" />
  <sodipodi:namedview
     id="namedview473"
     pagecolor="#505050"
     bordercolor="#eeeeee"
     borderopacity="1"
     inkscape:showpageshadow="false"
     inkscape:pageopacity="0"
     inkscape:pagecheckerboard="0"
     inkscape:deskcolor="#505050"
     showgrid="false"
     inkscape:zoom="1.4142136"
     inkscape:cx="379.71634"
     inkscape:cy="-280.72139"
     inkscape:window-width="1909"
     inkscape:window-height="2091"
     inkscape:window-x="0"
     inkscape:window-y="0"
     inkscape:window-maximized="1"
     inkscape:current-layer="svg471" />
  <path
     fill="#aecdd5"
     d="m 213.75,151.96 -54.14,-0.12 q -0.59,-0.01 -0.59,0.58 l -0.06,14.9 a 0.51,0.51 0 0 0 0.5,0.51 l 54.04,0.45 q 0.04,1.38 0.37,2.37 0.13,0.41 0.13,0.84 l -0.26,47.39 q 0,0.37 -0.37,0.37 H 60.02 q -0.47,0 -0.47,-0.47 l 0.14,-50.84 q 4.05,-0.45 5.81,-0.45 22.43,0.03 44.84,0 0.42,0 0.42,-0.42 l 0.02,-14.05 a 0.47,0.47 0 0 0 -0.47,-0.47 l -50.37,0.2 q -0.46,-1.28 -0.46,-2.25 0.1,-51.06 0.01,-102.22 0,-0.65 0.65,-0.65 l 153.23,-0.06 a 0.4,0.4 0 0 1 0.4,0.4 q 0.04,42.96 -0.03,85.04 c -0.01,4.5 0.56,12.59 0.01,18.95 z M 133.0832,91.1424 a 8.82,11.71 23.7 0 0 12.7829,-7.1772 8.82,11.71 23.7 0 0 -3.3693,-14.2676 8.82,11.71 23.7 0 0 -12.7829,7.1772 8.82,11.71 23.7 0 0 3.3693,14.2676 z M 207.89,82.1768 A 9.65,8.79 0.1 0 0 198.2553,73.37 9.65,8.79 0.1 0 0 188.59,82.1432 9.65,8.79 0.1 0 0 198.2247,90.95 9.65,8.79 0.1 0 0 207.89,82.1768 Z M 96.8871,100.0381 a 8.4,12.34 12.7 0 0 10.9074,-10.1914 8.4,12.34 12.7 0 0 -5.4816,-13.8848 8.4,12.34 12.7 0 0 -10.9074,10.1914 8.4,12.34 12.7 0 0 5.4816,13.8848 z m -14.7718,0.6165 a 11.46,9.44 60.2 0 0 2.4964,-14.636 11.46,9.44 60.2 0 0 -13.887,-5.2532 11.46,9.44 60.2 0 0 -2.4964,14.636 11.46,9.44 60.2 0 0 13.887,5.2532 z m 89.2333,1.9158 a 8.78,11.69 23.5 0 0 12.7132,-7.2194 8.78,11.69 23.5 0 0 -3.3904,-14.2214 8.78,11.69 23.5 0 0 -12.7132,7.2194 8.78,11.69 23.5 0 0 3.3904,14.2214 z m -18.6491,15.82 a 7.99,13.01 8.4 0 0 9.8048,-11.7032 7.99,13.01 8.4 0 0 -6.0038,-14.0376 7.99,13.01 8.4 0 0 -9.8048,11.7032 7.99,13.01 8.4 0 0 6.0038,14.0376 z m -22.5636,4.4462 a 12.38,8.47 85.2 0 0 7.4044,-13.0454 12.38,8.47 85.2 0 0 -9.4762,-11.6278 12.38,8.47 85.2 0 0 -7.4044,13.0454 12.38,8.47 85.2 0 0 9.4762,11.6278 z M 105.1,123.531 a 9.03,10.06 11.7 0 0 10.8824,-8.0198 9.03,10.06 11.7 0 0 -6.8024,-11.6822 9.03,10.06 11.7 0 0 -10.8824,8.0198 9.03,10.06 11.7 0 0 6.8024,11.6822 z m 68.5007,14.592 a 9.79,12.85 5.4 0 0 10.9559,-11.8717 9.79,12.85 5.4 0 0 -8.5373,-13.7143 9.79,12.85 5.4 0 0 -10.9559,11.8717 9.79,12.85 5.4 0 0 8.5373,13.7143 z m -56.3254,15.8462 a 13.88,8.06 89.4 0 0 7.9143,-13.9636 13.88,8.06 89.4 0 0 -8.2049,-13.7948 13.88,8.06 89.4 0 0 -7.9143,13.9636 13.88,8.06 89.4 0 0 8.2049,13.7948 z m 30.5665,8.2104 a 8.88,15.62 6.5 0 0 10.5911,-14.5144 8.88,15.62 6.5 0 0 -7.0547,-16.5248 8.88,15.62 6.5 0 0 -10.5911,14.5144 8.88,15.62 6.5 0 0 7.0547,16.5248 z m -27.3695,31.096 a 7.96,14.91 7.7 0 0 9.8859,-13.7091 7.96,14.91 7.7 0 0 -5.8905,-15.8421 7.96,14.91 7.7 0 0 -9.8859,13.7091 7.96,14.91 7.7 0 0 5.8905,15.8421 z m 27.4429,7.9666 a 17.31,9.46 87.4 0 0 8.6651,-17.7213 17.31,9.46 87.4 0 0 -10.2355,-16.8631 17.31,9.46 87.4 0 0 -8.6651,17.7213 17.31,9.46 87.4 0 0 10.2355,16.8631 z"
     id="path417"
     style="display:none" />
  <g
     id="g6438"
     transform="translate(-59.451294,-47.597778)">
    <rect
       style="display:inline;fill:#aecdd5;fill-opacity:1;stroke-width:1.00125"
       id="rect733"
       width="154.28954"
       height="171.65576"
       x="59.451294"
       y="47.597778" />
    <rect
       style="fill:#005676;fill-opacity:1;stroke-width:5.03835"
       id="rect2398"
       width="51.401718"
       height="15.057981"
       x="59.451294"
       y="152.54765"
       ry="0.012216568" />
    <ellipse
       fill="#005676"
       cx="0"
       cy="0"
       transform="rotate(113.7,42.632401,85.207806)"
       rx="11.71"
       ry="8.8199997"
       id="ellipse419" />
    <ellipse
       fill="#005676"
       cx="0"
       cy="0"
       transform="rotate(0.1,-46975.08,113624.2)"
       rx="9.6499996"
       ry="8.79"
       id="ellipse421" />
    <path
       fill="#005676"
       d="m 647.61,89.58 3.29,-15.56 a 0.34,0.34 0 0 1 0.34,-0.27 h 15.44 a 0.34,0.34 0 0 1 0.34,0.41 l -3.16,15.23 a 0.34,0.34 0 0 1 -0.33,0.28 l -15.58,0.32 a 0.34,0.34 0 0 1 -0.34,-0.41 z"
       id="path423" />
    <ellipse
       fill="#005676"
       cx="0"
       cy="0"
       transform="rotate(102.7,14.612351,83.826021)"
       rx="12.34"
       ry="8.3999996"
       id="ellipse425" />
    <path
       fill="#005676"
       d="m 594.37,93.69 c -6.13,3.89 -5.34,11.32 -0.03,15.48 10.53,8.24 24.94,11.47 25.69,28.36 1.51,33.99 -37.78,34.61 -59.82,26.21 q -0.37,-0.14 -0.26,-0.51 l 4.19,-13.99 q 0.17,-0.59 0.73,-0.33 c 8.02,3.81 17.8,7.54 26.43,5.15 7.36,-2.04 12.37,-7.5 10.95,-15.45 -1.44,-8.01 -14.03,-12.9 -18.69,-15.92 -7.44,-4.84 -11.19,-10.58 -11.02,-19.68 0.51,-28.12 35.11,-28.74 53.98,-21.99 q 0.49,0.17 0.35,0.67 l -3.6,13.32 q -0.13,0.45 -0.54,0.24 c -7.85,-3.98 -20.47,-6.57 -28.36,-1.56 z"
       id="path427" />
    <path
       fill="#005676"
       d="m 532.85,159.09 q 0.27,-1.98 -1.02,-0.45 c -14.87,17.75 -38.11,9.09 -39.44,-13.85 -1.18,-20.43 10.64,-44.42 33.59,-44.34 q 9.5,0.04 15.14,7.13 a 0.38,0.37 -58.3 0 0 0.66,-0.16 l 6.2,-28.99 q 0.09,-0.43 0.53,-0.42 l 13.97,0.61 q 0.41,0.02 0.33,0.42 -8.95,46.92 -12.53,64.71 c -1.43,7.11 -4.34,15.48 -5.26,23.77 Q 544.96,168 544.48,168 H 532.2 q -0.55,0 -0.48,-0.55 z M 517.18,117.9 c -6.2,6.37 -8.83,16.56 -7.77,25.18 0.64,5.25 4.75,9.9 10.18,10.09 14.99,0.54 23.84,-30.25 12.49,-37.29 -4.87,-3.03 -10.89,-2.1 -14.9,2.02 z"
       id="path429" />
    <path
       fill="#005676"
       d="m 213.5,168.28 -54.55993,-0.48188 c -0.27775,-0.005 0,0 0,0 l 0.0426,-15.9501 v 0 L 213.75,151.96 c 8.46667,0.16667 16.96667,0.0833 25.5,-0.25 4.83,-0.18 8.01,-5.47 8.87,-9.64 2.50667,-12.04 6.72667,-32.94667 12.66,-62.72 0.08,-0.4 0.32333,-0.6 0.73,-0.6 h 15.72 c 0.34,0 0.47667,0.166667 0.41,0.5 -4.08667,20.7 -8.23,41.39 -12.43,62.07 -3.52,17.32 -9.39,26.96 -28.6,26.94 -7.7,-0.0133 -15.40333,-0.007 -23.11,0.02 z"
       id="path431"
       sodipodi:nodetypes="cccccccccsscccc" />
    <path
       fill="#005676"
       d="m 377.47,133.71 -6.56,32.53 q -0.15,0.76 -0.92,0.76 h -15.71 q -0.44,0 -0.35,-0.43 l 17.9,-87.1 q 0.11,-0.55 0.68,-0.58 15.78,-0.66 29.42,0.69 c 6.05,0.6 13.73,3.36 17.65,8.45 6.26,8.15 4.51,22.18 -0.45,30.24 -8.96,14.57 -25.93,15.27 -41.06,14.96 a 0.6,0.6 0 0 0 -0.6,0.48 z m 8.46,-40.39 -5.25,25.61 q -0.12,0.56 0.44,0.63 c 11.93,1.58 26.69,-3.44 24.59,-18.5 -1.25,-9.01 -12.06,-9.34 -19.2,-8.29 q -0.49,0.07 -0.58,0.55 z"
       id="path433" />
    <ellipse
       fill="#005676"
       cx="0"
       cy="0"
       transform="rotate(60.2,-40.031481,111.27071)"
       rx="11.46"
       ry="9.4399996"
       id="ellipse435" />
    <ellipse
       fill="#005676"
       cx="0"
       cy="0"
       transform="rotate(113.5,57.895251,103.62361)"
       rx="11.69"
       ry="8.7799997"
       id="ellipse437" />
    <ellipse
       fill="#005676"
       cx="0"
       cy="0"
       transform="rotate(98.4,31.75879,119.48357)"
       rx="13.01"
       ry="7.9899998"
       id="ellipse441" />
    <ellipse
       fill="#005676"
       cx="0"
       cy="0"
       transform="rotate(85.2,4.4660764,125.4476)"
       rx="12.38"
       ry="8.4700003"
       id="ellipse443" />
    <path
       fill="#005676"
       d="m 439.46,140.01 c -0.71,21.1 24.31,17.65 36.12,11.84 q 0.59,-0.29 0.49,0.36 l -1.92,12.09 q -0.09,0.54 -0.61,0.7 c -21.02,6.6 -48.49,4.89 -49.42,-23.5 -0.74,-22.92 17.03,-44.65 41.61,-40.51 20.61,3.47 21.55,21.41 18.25,38.09 q -0.08,0.42 -0.51,0.42 h -43.48 a 0.53,0.53 0 0 0 -0.53,0.51 z m 21.12,-27.31 c -9.7,-1.07 -16.74,6.24 -19.27,14.98 a 0.45,0.44 8.2 0 0 0.43,0.57 H 469 q 0.51,0 0.57,-0.5 c 0.94,-7.68 -0.15,-14.07 -8.99,-15.05 z"
       id="path445" />
    <path
       fill="#005676"
       d="m 693.76,110.26 c 1.65,-1.67 3.36,-3.76 5.01,-5.01 9.46,-7.15 27,-6.99 29.99,7.27 a 0.29,0.28 53.3 0 0 0.53,0.08 c 6.4,-12.35 27.97,-17.73 36.38,-4.23 3.93,6.31 3.03,14.88 1.31,22.13 q -3.66,15.43 -7.69,36.04 -0.09,0.46 -0.56,0.46 h -15.21 q -0.52,0 -0.42,-0.51 3.64,-18 7.52,-35.91 c 0.94,-4.36 2.07,-10.79 -0.76,-14.4 -4.74,-6.04 -13.75,-1.98 -16.9,4.11 q -3.24,6.26 -5.44,15.72 -3.53,15.15 -6.41,30.46 -0.1,0.53 -0.64,0.53 H 705.3 q -0.61,0 -0.48,-0.59 5.62,-25.14 8.68,-41.89 c 1.16,-6.31 -2.61,-11.95 -9.31,-11.13 -10.51,1.28 -14.07,17.91 -15.77,26.1 q -2.79,13.44 -5.48,26.92 -0.11,0.59 -0.71,0.59 h -15.26 q -0.7,0 -0.56,-0.69 l 13.08,-63.91 q 0.09,-0.45 0.55,-0.45 l 13.8,0.07 q 0.57,0.01 0.48,0.58 l -1.18,7.34 q -0.19,1.15 0.62,0.32 z"
       id="path447" />
    <path
       fill="#005676"
       d="m 321.46,161.07 c -7.72,5.98 -14.73,8.94 -24.77,6.24 -13.14,-3.54 -14.22,-16.88 -12.09,-28.07 q 3.51,-18.4 7.49,-36.7 0.13,-0.59 0.73,-0.6 l 14.94,-0.18 q 0.66,-0.01 0.53,0.64 -3.34,17.06 -6.79,34.04 c -0.89,4.4 -2.1,10.67 0.36,14.62 q 4.14,6.65 12.95,3.51 c 7.67,-2.72 10.84,-12.53 12.45,-20.07 q 3.4,-15.97 6.57,-31.99 0.09,-0.47 0.57,-0.48 l 15.37,-0.19 a 0.29,0.28 5.6 0 1 0.29,0.34 c -4.48,21.24 -9.64,42.76 -12.94,64.27 q -0.08,0.55 -0.64,0.55 h -14.76 q -0.53,0 -0.44,-0.52 l 0.83,-5.02 q 0.18,-1.04 -0.65,-0.39 z"
       id="path449" />
    <path
       fill="#005676"
       d="m 661,102.24 -13.37,64.49 a 0.3,0.3 0 0 1 -0.29,0.24 l -15.43,0.09 a 0.3,0.3 0 0 1 -0.3,-0.36 l 13.25,-64.47 a 0.3,0.3 0 0 1 0.29,-0.24 l 15.56,-0.11 a 0.3,0.3 0 0 1 0.29,0.36 z"
       id="path451" />
    <ellipse
       fill="#005676"
       cx="0"
       cy="0"
       transform="rotate(101.7,7.2949647,100.45284)"
       rx="10.06"
       ry="9.0299997"
       id="ellipse453" />
    <ellipse
       fill="#005676"
       cx="0"
       cy="0"
       transform="rotate(95.4,30.384237,142.19743)"
       rx="12.85"
       ry="9.79"
       id="ellipse455" />
    <ellipse
       fill="#005676"
       cx="0"
       cy="0"
       transform="rotate(89.4,-12.217377,129.22652)"
       rx="13.88"
       ry="8.0600004"
       id="ellipse461" />
    <ellipse
       fill="#005676"
       cx="0"
       cy="0"
       transform="rotate(96.5,9.3554727,140.09602)"
       rx="15.62"
       ry="8.8800001"
       id="ellipse463" />
    <ellipse
       fill="#005676"
       cx="0"
       cy="0"
       transform="rotate(97.7,-16.759998,142.76287)"
       rx="14.91"
       ry="7.96"
       id="ellipse467" />
    <ellipse
       fill="#005676"
       cx="0"
       cy="0"
       transform="rotate(87.4,-22.68134,168.95638)"
       rx="17.309999"
       ry="9.46"
       id="ellipse469" />
  </g>
</svg>

<?xml version="1.0" encoding="UTF-8" standalone="no"?>
<svg
   version="1.1"
   viewBox="0.00 0.00 850.00 303.00"
   id="svg471"
   sodipodi:docname="jupedsim.svg"
   inkscape:version="1.2.2 (b0a8486541, 2022-12-01)"
   xmlns:inkscape="http://www.inkscape.org/namespaces/inkscape"
   xmlns:sodipodi="http://sodipodi.sourceforge.net/DTD/sodipodi-0.dtd"
   xmlns="http://www.w3.org/2000/svg"
   xmlns:svg="http://www.w3.org/2000/svg">
  <defs
     id="defs475" />
  <sodipodi:namedview
     id="namedview473"
     pagecolor="#505050"
     bordercolor="#eeeeee"
     borderopacity="1"
     inkscape:showpageshadow="0"
     inkscape:pageopacity="0"
     inkscape:pagecheckerboard="0"
     inkscape:deskcolor="#505050"
     showgrid="false"
     inkscape:zoom="4"
     inkscape:cx="-24.375"
     inkscape:cy="129"
     inkscape:window-width="3836"
     inkscape:window-height="2101"
     inkscape:window-x="0"
     inkscape:window-y="0"
     inkscape:window-maximized="1"
     inkscape:current-layer="svg471" />
  <rect
     style="display:inline;fill:#aecdd5;fill-opacity:1;stroke-width:1.00125"
     id="rect733"
     width="154.28954"
     height="171.65576"
     x="59.451294"
     y="47.597778" />
  <path
     fill="#aecdd5"
     d="m 213.75,151.96 -54.14,-0.12 q -0.59,-0.01 -0.59,0.58 l -0.06,14.9 a 0.51,0.51 0 0 0 0.5,0.51 l 54.04,0.45 q 0.04,1.38 0.37,2.37 0.13,0.41 0.13,0.84 l -0.26,47.39 q 0,0.37 -0.37,0.37 H 60.02 q -0.47,0 -0.47,-0.47 l 0.14,-50.84 q 4.05,-0.45 5.81,-0.45 22.43,0.03 44.84,0 0.42,0 0.42,-0.42 l 0.02,-14.05 a 0.47,0.47 0 0 0 -0.47,-0.47 l -50.37,0.2 q -0.46,-1.28 -0.46,-2.25 0.1,-51.06 0.01,-102.22 0,-0.65 0.65,-0.65 l 153.23,-0.06 a 0.4,0.4 0 0 1 0.4,0.4 q 0.04,42.96 -0.03,85.04 c -0.01,4.5 0.56,12.59 0.01,18.95 z M 133.0832,91.1424 a 11.71,8.82 113.7 0 0 12.7829,-7.1772 11.71,8.82 113.7 0 0 -3.3693,-14.2676 11.71,8.82 113.7 0 0 -12.7829,7.1772 11.71,8.82 113.7 0 0 3.3693,14.2676 z M 207.89,82.1768 A 9.65,8.79 0.1 0 0 198.2553,73.37 9.65,8.79 0.1 0 0 188.59,82.1432 9.65,8.79 0.1 0 0 198.2247,90.95 9.65,8.79 0.1 0 0 207.89,82.1768 Z M 96.8871,100.0381 a 12.34,8.4 102.7 0 0 10.9074,-10.1914 12.34,8.4 102.7 0 0 -5.4816,-13.8848 12.34,8.4 102.7 0 0 -10.9074,10.1914 12.34,8.4 102.7 0 0 5.4816,13.8848 z m -14.7718,0.6165 a 11.46,9.44 60.2 0 0 2.4964,-14.636 11.46,9.44 60.2 0 0 -13.887,-5.2532 11.46,9.44 60.2 0 0 -2.4964,14.636 11.46,9.44 60.2 0 0 13.887,5.2532 z m 89.2333,1.9158 a 11.69,8.78 113.5 0 0 12.7132,-7.2194 11.69,8.78 113.5 0 0 -3.3904,-14.2214 11.69,8.78 113.5 0 0 -12.7132,7.2194 11.69,8.78 113.5 0 0 3.3904,14.2214 z m -18.6491,15.82 a 13.01,7.99 98.4 0 0 9.8048,-11.7032 13.01,7.99 98.4 0 0 -6.0038,-14.0376 13.01,7.99 98.4 0 0 -9.8048,11.7032 13.01,7.99 98.4 0 0 6.0038,14.0376 z m -22.5636,4.4462 a 12.38,8.47 85.2 0 0 7.4044,-13.0454 12.38,8.47 85.2 0 0 -9.4762,-11.6278 12.38,8.47 85.2 0 0 -7.4044,13.0454 12.38,8.47 85.2 0 0 9.4762,11.6278 z M 105.1,123.531 a 10.06,9.03 101.7 0 0 10.8824,-8.0198 10.06,9.03 101.7 0 0 -6.8024,-11.6822 10.06,9.03 101.7 0 0 -10.8824,8.0198 10.06,9.03 101.7 0 0 6.8024,11.6822 z m 68.5007,14.592 a 12.85,9.79 95.4 0 0 10.9559,-11.8717 12.85,9.79 95.4 0 0 -8.5373,-13.7143 12.85,9.79 95.4 0 0 -10.9559,11.8717 12.85,9.79 95.4 0 0 8.5373,13.7143 z m -56.3254,15.8462 a 13.88,8.06 89.4 0 0 7.9143,-13.9636 13.88,8.06 89.4 0 0 -8.2049,-13.7948 13.88,8.06 89.4 0 0 -7.9143,13.9636 13.88,8.06 89.4 0 0 8.2049,13.7948 z m 30.5665,8.2104 a 15.62,8.88 96.5 0 0 10.5911,-14.5144 15.62,8.88 96.5 0 0 -7.0547,-16.5248 15.62,8.88 96.5 0 0 -10.5911,14.5144 15.62,8.88 96.5 0 0 7.0547,16.5248 z m -27.3695,31.096 a 14.91,7.96 97.7 0 0 9.8859,-13.7091 14.91,7.96 97.7 0 0 -5.8905,-15.8421 14.91,7.96 97.7 0 0 -9.8859,13.7091 14.91,7.96 97.7 0 0 5.8905,15.8421 z m 27.4429,7.9666 a 17.31,9.46 87.4 0 0 8.6651,-17.7213 17.31,9.46 87.4 0 0 -10.2355,-16.8631 17.31,9.46 87.4 0 0 -8.6651,17.7213 17.31,9.46 87.4 0 0 10.2355,16.8631 z"
     id="path417"
     style="display:none" />
  <rect
     style="fill:#005676;fill-opacity:1;stroke-width:5.03835"
     id="rect2398"
     width="51.401718"
     height="15.057981"
     x="59.451294"
     y="152.54765"
     ry="0.012216568" />
  <ellipse
     fill="#005676"
     cx="0.00"
     cy="0.00"
     transform="translate(137.79,80.42) rotate(113.7)"
     rx="11.71"
     ry="8.82"
     id="ellipse419" />
  <ellipse
     fill="#005676"
     cx="0.00"
     cy="0.00"
     transform="translate(198.24,82.16) rotate(0.1)"
     rx="9.65"
     ry="8.79"
     id="ellipse421" />
  <path
     fill="#005676"
     d="   M 647.61 89.58   L 650.90 74.02   A 0.34 0.34 0.0 0 1 651.24 73.75   L 666.68 73.75   A 0.34 0.34 0.0 0 1 667.02 74.16   L 663.86 89.39   A 0.34 0.34 0.0 0 1 663.53 89.67   L 647.95 89.99   A 0.34 0.34 0.0 0 1 647.61 89.58   Z"
     id="path423" />
  <ellipse
     fill="#005676"
     cx="0.00"
     cy="0.00"
     transform="translate(99.60,88.00) rotate(102.7)"
     rx="12.34"
     ry="8.40"
     id="ellipse425" />
  <path
     fill="#005676"
     d="   M 594.37 93.69   C 588.24 97.58 589.03 105.01 594.34 109.17   C 604.87 117.41 619.28 120.64 620.03 137.53   C 621.54 171.52 582.25 172.14 560.21 163.74   Q 559.84 163.60 559.95 163.23   L 564.14 149.24   Q 564.31 148.65 564.87 148.91   C 572.89 152.72 582.67 156.45 591.30 154.06   C 598.66 152.02 603.67 146.56 602.25 138.61   C 600.81 130.60 588.22 125.71 583.56 122.69   C 576.12 117.85 572.37 112.11 572.54 103.01   C 573.05 74.89 607.65 74.27 626.52 81.02   Q 627.01 81.19 626.87 81.69   L 623.27 95.01   Q 623.14 95.46 622.73 95.25   C 614.88 91.27 602.26 88.68 594.37 93.69   Z"
     id="path427" />
  <path
     fill="#005676"
     d="   M 532.85 159.09   Q 533.12 157.11 531.83 158.64   C 516.96 176.39 493.72 167.73 492.39 144.79   C 491.21 124.36 503.03 100.37 525.98 100.45   Q 535.48 100.49 541.12 107.58   A 0.38 0.37 -58.3 0 0 541.78 107.42   L 547.98 78.43   Q 548.07 78.00 548.51 78.01   L 562.48 78.62   Q 562.89 78.64 562.81 79.04   Q 553.86 125.96 550.28 143.75   C 548.85 150.86 545.94 159.23 545.02 167.52   Q 544.96 168.00 544.48 168.00   L 532.20 168.00   Q 531.65 168.00 531.72 167.45   L 532.85 159.09   Z   M 517.18 117.90   C 510.98 124.27 508.35 134.46 509.41 143.08   C 510.05 148.33 514.16 152.98 519.59 153.17   C 534.58 153.71 543.43 122.92 532.08 115.88   C 527.21 112.85 521.19 113.78 517.18 117.90   Z"
     id="path429" />
  <path
     fill="#005676"
     d="m 213.5,168.28 -54.55993,-0.48188 c -0.27775,-0.005 0,0 0,0 l 0.0426,-15.9501 v 0 L 213.75,151.96 c 8.46667,0.16667 16.96667,0.0833 25.5,-0.25 4.83,-0.18 8.01,-5.47 8.87,-9.64 2.50667,-12.04 6.72667,-32.94667 12.66,-62.72 0.08,-0.4 0.32333,-0.6 0.73,-0.6 h 15.72 c 0.34,0 0.47667,0.166667 0.41,0.5 -4.08667,20.7 -8.23,41.39 -12.43,62.07 -3.52,17.32 -9.39,26.96 -28.6,26.94 -7.7,-0.0133 -15.40333,-0.007 -23.11,0.02 z"
     id="path431"
     sodipodi:nodetypes="cccccccccsscccc" />
  <path
     fill="#005676"
     d="   M 377.47 133.71   L 370.91 166.24   Q 370.76 167.00 369.99 167.00   L 354.28 167.00   Q 353.84 167.00 353.93 166.57   L 371.83 79.47   Q 371.94 78.92 372.51 78.89   Q 388.29 78.23 401.93 79.58   C 407.98 80.18 415.66 82.94 419.58 88.03   C 425.84 96.18 424.09 110.21 419.13 118.27   C 410.17 132.84 393.20 133.54 378.07 133.23   A 0.60 0.60 0.0 0 0 377.47 133.71   Z   M 385.93 93.32   L 380.68 118.93   Q 380.56 119.49 381.12 119.56   C 393.05 121.14 407.81 116.12 405.71 101.06   C 404.46 92.05 393.65 91.72 386.51 92.77   Q 386.02 92.84 385.93 93.32   Z"
     id="path433" />
  <ellipse
     fill="#005676"
     cx="0.00"
     cy="0.00"
     transform="translate(76.42,90.71) rotate(60.2)"
     rx="11.46"
     ry="9.44"
     id="ellipse435" />
  <ellipse
     fill="#005676"
     cx="0.00"
     cy="0.00"
     transform="translate(176.01,91.85) rotate(113.5)"
     rx="11.69"
     ry="8.78"
     id="ellipse437" />
  <ellipse
     fill="#005676"
     cx="0.00"
     cy="0.00"
     transform="translate(154.60,105.52) rotate(98.4)"
     rx="13.01"
     ry="7.99"
     id="ellipse441" />
  <ellipse
     fill="#005676"
     cx="0.00"
     cy="0.00"
     transform="translate(129.10,110.50) rotate(85.2)"
     rx="12.38"
     ry="8.47"
     id="ellipse443" />
  <path
     fill="#005676"
     d="   M 439.46 140.01   C 438.75 161.11 463.77 157.66 475.58 151.85   Q 476.17 151.56 476.07 152.21   L 474.15 164.30   Q 474.06 164.84 473.54 165.00   C 452.52 171.60 425.05 169.89 424.12 141.50   C 423.38 118.58 441.15 96.85 465.73 100.99   C 486.34 104.46 487.28 122.40 483.98 139.08   Q 483.90 139.50 483.47 139.50   L 439.99 139.50   A 0.53 0.53 0.0 0 0 439.46 140.01   Z   M 460.58 112.70   C 450.88 111.63 443.84 118.94 441.31 127.68   A 0.45 0.44 8.2 0 0 441.74 128.25   L 469.00 128.25   Q 469.51 128.25 469.57 127.75   C 470.51 120.07 469.42 113.68 460.58 112.70   Z"
     id="path445" />
  <path
     fill="#005676"
     d="   M 693.76 110.26   C 695.41 108.59 697.12 106.50 698.77 105.25   C 708.23 98.10 725.77 98.26 728.76 112.52   A 0.29 0.28 53.3 0 0 729.29 112.60   C 735.69 100.25 757.26 94.87 765.67 108.37   C 769.60 114.68 768.70 123.25 766.98 130.50   Q 763.32 145.93 759.29 166.54   Q 759.20 167.00 758.73 167.00   L 743.52 167.00   Q 743.00 167.00 743.10 166.49   Q 746.74 148.49 750.62 130.58   C 751.56 126.22 752.69 119.79 749.86 116.18   C 745.12 110.14 736.11 114.20 732.96 120.29   Q 729.72 126.55 727.52 136.01   Q 723.99 151.16 721.11 166.47   Q 721.01 167.00 720.47 167.00   L 705.30 167.00   Q 704.69 167.00 704.82 166.41   Q 710.44 141.27 713.50 124.52   C 714.66 118.21 710.89 112.57 704.19 113.39   C 693.68 114.67 690.12 131.30 688.42 139.49   Q 685.63 152.93 682.94 166.41   Q 682.83 167.00 682.23 167.00   L 666.97 167.00   Q 666.27 167.00 666.41 166.31   L 679.49 102.40   Q 679.58 101.95 680.04 101.95   L 693.84 102.02   Q 694.41 102.03 694.32 102.60   L 693.14 109.94   Q 692.95 111.09 693.76 110.26   Z"
     id="path447" />
  <path
     fill="#005676"
     d="   M 321.46 161.07   C 313.74 167.05 306.73 170.01 296.69 167.31   C 283.55 163.77 282.47 150.43 284.60 139.24   Q 288.11 120.84 292.09 102.54   Q 292.22 101.95 292.82 101.94   L 307.76 101.76   Q 308.42 101.75 308.29 102.40   Q 304.95 119.46 301.50 136.44   C 300.61 140.84 299.40 147.11 301.86 151.06   Q 306.00 157.71 314.81 154.57   C 322.48 151.85 325.65 142.04 327.26 134.50   Q 330.66 118.53 333.83 102.51   Q 333.92 102.04 334.40 102.03   L 349.77 101.84   A 0.29 0.28 5.6 0 1 350.06 102.18   C 345.58 123.42 340.42 144.94 337.12 166.45   Q 337.04 167.00 336.48 167.00   L 321.72 167.00   Q 321.19 167.00 321.28 166.48   L 322.11 161.46   Q 322.29 160.42 321.46 161.07   Z"
     id="path449" />
  <path
     fill="#005676"
     d="   M 661.00 102.24   L 647.63 166.73   A 0.30 0.30 0.0 0 1 647.34 166.97   L 631.91 167.06   A 0.30 0.30 0.0 0 1 631.61 166.70   L 644.86 102.23   A 0.30 0.30 0.0 0 1 645.15 101.99   L 660.71 101.88   A 0.30 0.30 0.0 0 1 661.00 102.24   Z"
     id="path451" />
  <ellipse
     fill="#005676"
     cx="0.00"
     cy="0.00"
     transform="translate(107.14,113.68) rotate(101.7)"
     rx="10.06"
     ry="9.03"
     id="ellipse453" />
  <ellipse
     fill="#005676"
     cx="0.00"
     cy="0.00"
     transform="translate(174.81,125.33) rotate(95.4)"
     rx="12.85"
     ry="9.79"
     id="ellipse455" />
  <ellipse
     fill="#005676"
     cx="0.00"
     cy="0.00"
     transform="translate(117.13,140.09) rotate(89.4)"
     rx="13.88"
     ry="8.06"
     id="ellipse461" />
  <ellipse
     fill="#005676"
     cx="0.00"
     cy="0.00"
     transform="translate(149.61,146.66) rotate(96.5)"
     rx="15.62"
     ry="8.88"
     id="ellipse463" />
  <ellipse
     fill="#005676"
     cx="0.00"
     cy="0.00"
     transform="translate(122.47,178.50) rotate(97.7)"
     rx="14.91"
     ry="7.96"
     id="ellipse467" />
  <ellipse
     fill="#005676"
     cx="0.00"
     cy="0.00"
     transform="translate(147.13,183.95) rotate(87.4)"
     rx="17.31"
     ry="9.46"
     id="ellipse469" />
</svg>
